X:377
T:Sandmount Reel, The
T:Sandymount Reel, The
T:Mick Hand's
R:reel
D:De Danann: Selected Jigs & Reels
D:Mary Bergin: Feadoga Stain
D:Dervish: Harmony Hill
Z:id:hn-reel-377
M:C|
K:Ador
eAAG ~A3G|EGDG EGDG|EAAG A2 (3Bcd|egfa gedg:|
eaag a2ba|gede gedg|eaag a2ga|bagb ~a3g|
eaag a2ba|gedB dega|bgaf gefd|~e3d e2ag||
P:variations
eA~A2 ABAG|EGDG EGDG|EA~A2 ABcd|egfa gedg|
eA~A2 ABAG|EGDG EGDG|EA~A2 ABcd|(3efg fa gbag||
ea~a2 ~a3f|gede gedg|ea~a2 aega|bagb ~a3g|
ea~a2 ~a3f|gedB dega|bggf gafg|~e2dg eaag||
P:more variations
eAAG ABAG|EGDG EGDG|EAAG A2fd|e2ae gbag|
eAAG ABAG|EGDG EGDG|EAAG ABcd|e2ae gedg||
ea~a2 agba|ge~e2 gedg|eaag ~a2ga|bagb ~a3g|
eaag ~a3f|gedB dega|bgaf g2fg|~e2dg eaag||

